X:1
T:The Last Sleep, 10.10.10.10
T:Joseph Barnby, 1869
T:The Last Sleep, 10.10.10.10
T:Public Domain
C:Joseph Barnby, 1869
Z:Public Domain
%%score ( 1 2 ) ( 3 4 )
L:1/8
M:4/4
K:D
V:1 treble 
V:2 treble 
V:3 bass 
V:4 bass 
V:1
 [A,D]4 [A,D]2 [A,D]2 | [B,D]8 | [DG]3 [DG] [CF]2 [CE]2 | [CE]4 [DF]2 z2 | [EF]4 [EF]2 [EF]2 | %5
 [DF]8 | [FB]3 [FB] [^EA]2 [E^G]2 | [^E^G]4 [FA]2 z2 | (C2 D2) [EA]2 [FA]2 | (E4 D4) | %10
 ^D2 z B [FB]2 [GB]2 | [FB]4 [EB]4 | [Ec]4 [DB]2 [CA]2 | ([Dd]4 [=CD]4) | %14
 [B,D]3 [B,D] [B,D]2 [B,G]2 | [CE]4 D4 |] %16
V:2
 x8 | x8 | x8 | x8 | x8 | x8 | x8 | x8 | A4 x4 | B8 | B3 E2 x3 | x8 | x8 | x8 | x8 | x4 D4 |] %16
V:3
 [D,F,]4 [D,F,]2 [D,F,]2 | [B,,F,]8 | [G,,B,]3 [G,,B,] [A,,A,]2 [A,,G,]2 | [A,,G,]4 [D,F,]2 z2 | %4
 [C,^A,]4 [C,A,]2 [C,A,]2 | [B,,B,]8 | [^G,,D]3 [G,,D] [C,C]2 [C,B,]2 | [C,B,]4 [F,A,]2 z2 | %8
 (E,2 F,2) [A,,G,]2 [A,,A,]2 | (G,4 F,4) | [B,,F,]2 [B,,G,]2 [B,,A,]2 [B,,B,]2 | [E,A,]4 [E,G,]4 | %12
 [A,,G,]4 [A,,G,]2 [A,,G,]2 | (B,,4 A,,4) | [G,,G,]3 [G,,G,] [G,,G,]2 [G,,E,]2 | %15
 [A,,G,]4 [D,F,]4 |] %16
V:4
 x8 | x8 | x8 | x8 | x8 | x8 | x8 | x8 | A,,4 x4 | D,8 | x8 | x8 | x8 | F,8 | x8 | x8 |] %16

